X:45
T:Soldier's Joy
R:hornpipe
Z:id:hn-hornpipe-45
M:C|
K:D
dB | AFDF AFDF | A2d2 d2cB | AFDF AFDF | G2E2 E2FG |
AFDF AFDF | A2d2 d3e | fafd egec | d2dc d2 :|
|: de | f2fe fagf | edcd egfe | f2fe fagf | edcB A2de |
f2fd fagf | edcd egfe | fafd egec | d2dc d2 :|
P:Variations:
|: dB | AGFE DEFG | A2d2 d2dB | AGFE DEFD | G2E2 E2dB | 
AGFE DEFG | A2d2 d3e | fafd egec | d2dc d2 :|
|: dA | defg a2gf | ecef g2fe | defg a2af | edcB A2Ac |
defg a2gf | ecef g2fe | fafd egec | d2dc d2 :|

